X:231
T:Top of the Cork Road
T:Father O'Flynn
R:Jig
S:Trad Irish
M:6/8
L:1/8
K:D
A|:dAF DFA | ded cBA|  d2d efg |fdf ecA|
 | dAF DFA | ded cBA|  d2d efg |1 fdc d2 A:|2 fdc d2 e|
 |:f2f fga |ecA ABc|dcd Bed |cAA A2 =c |
 |B2B BAG | AFD DFA | dcd efg|1 fdc d2 e :|2 fcd d2 A|
